svg/Filled/chevron-forward-circle_filled.svg

<svg viewBox="0 0 24 24" xmlns="http://www.w3.org/2000/svg" width="24" height="24"><path fill-rule="evenodd" d="M12 1a11 11 0 1 1 0 22 11 11 0 0 1 0-22m-.32 6.33a1 1 0 0 0-1.4 1.4l.06.08 2.77 2.77q.3.3.4.42h.01v.02l-.4.41-2.78 2.77a1 1 0 1 0 1.42 1.42l2.77-2.77q.29-.28.5-.54.19-.2.33-.48l.08-.2a2 2 0 0 0 0-1.24q-.16-.43-.4-.69l-.51-.53-2.77-2.77z" clip-rule="evenodd"/></svg>

<svg viewBox="0 0 24 24" xmlns="http://www.w3.org/2000/svg" width="24" height="24"><path fill-rule="evenodd" d="M12 1a11 11 0 1 1 0 22 11 11 0 0 1 0-22M11.68 7.33A1 1 0 0 0 10.28 8.73L13.11 11.58Q13.41 11.88 13.51 12L13.12 12.43L10.34 15.2A1 1 0 1 0 11.76 16.62L14.53 13.85Q14.82 13.57 15.03 13.31Q15.22 13.11 15.36 12.83L15.44 12.63A2 2 0 0 0 15.44 11.39Q15.28 10.96 15.04 10.7L11.76 7.4Z" clip-rule="evenodd"/></svg>
